public/library/ltp-text-light.svg

<svg xmlns="http://www.w3.org/2000/svg" width="84" height="32" viewBox="0 0 84 32" fill="#000" data-sentry-element="svg" data-sentry-source-file="Logo.tsx" data-sentry-component="Logo"><path d="M51.1028 21.383H42.2745V7.11683C42.2745 6.95697 42.1475 6.8291 41.9887 6.8291H38.3366C38.1778 6.8291 38.0508 6.95697 38.0508 7.11683V24.8602C38.0508 25.02 38.1778 25.148 38.3366 25.148H51.1028C51.2616 25.148 51.3886 25.02 51.3886 24.8602V21.6388C51.357 21.5108 51.2616 21.383 51.1028 21.383Z" data-sentry-element="path" data-sentry-source-file="Logo.tsx"/><path d="M64.2396 6.86084H48.9645C48.8059 6.86084 48.6787 6.98873 48.6787 7.14857V10.0579C48.6787 10.2177 48.8059 10.3456 48.9645 10.3456H54.522V24.9239C54.522 25.0838 54.649 25.2118 54.8078 25.2118H58.4599C58.6187 25.2118 58.7457 25.0838 58.7457 24.9239V10.3136H64.3031C64.4619 10.3136 64.5889 10.1857 64.5889 10.0259V7.1166C64.5254 6.95676 64.3984 6.86084 64.2396 6.86084Z" data-sentry-element="path" data-sentry-source-file="Logo.tsx"/><path d="M81.5077 9.93019C80.8726 8.93913 79.9516 8.17185 78.7766 7.62835C77.6016 7.08486 76.2042 6.8291 74.5847 6.8291H66.9948C66.836 6.8291 66.709 6.95697 66.709 7.11683V24.8602C66.709 25.02 66.836 25.148 66.9948 25.148H70.6469C70.8057 25.148 70.9327 25.02 70.9327 24.8602V20.0966H74.5847C76.2042 20.0966 77.6334 19.8409 78.7766 19.2974C79.9516 18.7539 80.8726 17.9867 81.5077 16.9956C82.1428 16.0046 82.4604 14.8216 82.4604 13.4789C82.4604 12.1042 82.1428 10.9213 81.5077 9.93019ZM70.9009 10.3138H74.3307C75.6326 10.3138 76.5854 10.6016 77.2522 11.1451C77.8874 11.6886 78.205 12.4878 78.205 13.5109C78.205 14.5019 77.8874 15.2692 77.2522 15.8447C76.6171 16.3881 75.6326 16.676 74.3307 16.676H70.9009V10.3138Z" data-sentry-element="path" data-sentry-source-file="Logo.tsx"/><path d="M21.8545 24.3472C21.7592 24.2834 21.6004 24.2834 21.5051 24.3472L17.9484 26.4253C17.8532 26.4893 17.7578 26.6171 17.7578 26.745V30.8692C17.7578 30.997 17.8214 31.125 17.9484 31.1888C18.012 31.2208 18.0754 31.2208 18.139 31.2208C18.2024 31.2208 18.266 31.1888 18.3294 31.1568L21.8863 29.0789C21.9815 29.0149 22.0767 28.8871 22.0767 28.7591V24.667C22.045 24.539 21.9815 24.4112 21.8545 24.3472Z" fill="#0049F5" data-sentry-element="path" data-sentry-source-file="Logo.tsx"/><path d="M3.75547 8.04373L7.43925 10.1857C7.50277 10.2177 7.56629 10.2497 7.62979 10.2497C7.69331 10.2497 7.75683 10.2177 7.82034 10.1857L11.4406 8.0757C11.5359 8.01176 11.5994 7.88389 11.5994 7.756C11.5994 7.62813 11.5359 7.50024 11.4089 7.4363L7.75683 5.32627C7.66155 5.26234 7.50277 5.26234 7.40749 5.32627L3.78722 7.40433C3.66019 7.46827 3.59668 7.59616 3.59668 7.72403C3.59668 7.8519 3.66019 7.97979 3.75547 8.04373Z" fill="#FF9600" data-sentry-element="path" data-sentry-source-file="Logo.tsx"/><path d="M14.7095 26.7783L6.45272 21.9507V12.9032C6.45272 12.7754 6.3892 12.6475 6.26218 12.5835L2.67365 10.5055C2.57838 10.4415 2.4196 10.4415 2.32433 10.5055C2.22906 10.5694 2.13379 10.6973 2.13379 10.8252V24.2846C2.13379 24.4125 2.1973 24.5403 2.32433 24.6043L14.3602 31.5738C14.4237 31.6058 14.4872 31.6058 14.5507 31.6058C14.6142 31.6058 14.6777 31.5738 14.7412 31.5418C14.8365 31.4778 14.9318 31.35 14.9318 31.2221V27.0659C14.9 26.9701 14.8365 26.8423 14.7095 26.7783Z" data-sentry-element="path" data-sentry-source-file="Logo.tsx"/><path d="M19.8217 22.0145C19.8217 21.8865 19.7582 21.7586 19.6312 21.6948L13.3116 18.0501L13.3433 10.665C13.3433 10.5371 13.2798 10.4093 13.1528 10.3453C13.0575 10.2814 12.8987 10.2814 12.8035 10.3453L9.21495 12.4234C9.08793 12.4873 9.02441 12.6152 9.02441 12.7431V20.224C9.02441 20.3519 9.08793 20.4799 9.21495 20.5437L15.7886 24.3802C15.8521 24.4122 15.9156 24.4122 15.9792 24.4122C16.0427 24.4122 16.1062 24.3802 16.1697 24.3482L19.6312 22.3661C19.7582 22.2701 19.8217 22.1423 19.8217 22.0145Z" data-sentry-element="path" data-sentry-source-file="Logo.tsx"/><path d="M29.6372 8.26735L16.1723 0.434674C16.0771 0.370734 15.9183 0.370734 15.823 0.434674L12.2345 2.51272C12.1392 2.57668 12.0439 2.70455 12.0439 2.83244C12.0439 2.96031 12.1075 3.0882 12.2345 3.15214L25.5724 10.8889L25.5406 26.3625C25.5406 26.4903 25.604 26.6182 25.7312 26.6822C25.7946 26.7142 25.8582 26.746 25.9216 26.746C25.9852 26.746 26.0486 26.746 26.0804 26.7142L29.669 24.6361C29.796 24.5721 29.8595 24.4442 29.8595 24.3164V8.65099C29.8278 8.45918 29.7642 8.33129 29.6372 8.26735Z" data-sentry-element="path" data-sentry-source-file="Logo.tsx"/></svg>

<svg xmlns="http://www.w3.org/2000/svg" width="84" height="32" data-sentry-component="Logo" data-sentry-element="svg" data-sentry-source-file="Logo.tsx" viewBox="0 0 84 32"><path d="M51.103 21.383h-8.828V7.117a.286.286 0 0 0-.286-.288h-3.652a.286.286 0 0 0-.286.288V24.86c0 .16.127.288.286.288h12.766a.286.286 0 0 0 .286-.288V21.64c-.032-.128-.127-.256-.286-.256M64.24 6.86H48.965a.286.286 0 0 0-.286.289v2.909c0 .16.127.288.285.288h5.558v14.578c0 .16.127.288.286.288h3.652a.286.286 0 0 0 .286-.288v-14.61h5.557a.286.286 0 0 0 .286-.288v-2.91c-.064-.16-.19-.255-.35-.255M81.508 9.93c-.635-.99-1.556-1.758-2.731-2.302-1.175-.543-2.573-.799-4.192-.799h-7.59a.286.286 0 0 0-.286.288V24.86c0 .16.127.288.286.288h3.652a.286.286 0 0 0 .286-.288v-4.763h3.652c1.62 0 3.048-.256 4.192-.8 1.175-.543 2.096-1.31 2.73-2.301.636-.991.953-2.174.953-3.517q0-2.062-.952-3.549m-10.607.384h3.43c1.302 0 2.254.288 2.921.831.635.544.953 1.343.953 2.366 0 .99-.318 1.758-.953 2.334-.635.543-1.62.831-2.921.831H70.9z" data-sentry-element="path" data-sentry-source-file="Logo.tsx"/><path fill="#0049f5" d="M21.855 24.347a.34.34 0 0 0-.35 0l-3.557 2.078c-.095.064-.19.192-.19.32v4.124c0 .128.063.256.19.32.064.032.127.032.191.032a.45.45 0 0 0 .19-.064l3.557-2.078c.096-.064.19-.192.19-.32v-4.092c-.031-.128-.095-.256-.221-.32" data-sentry-element="path" data-sentry-source-file="Logo.tsx"/><path fill="#ff9600" d="m3.755 8.044 3.684 2.142a.45.45 0 0 0 .19.064.45.45 0 0 0 .191-.064l3.62-2.11a.4.4 0 0 0 .16-.32.35.35 0 0 0-.191-.32l-3.652-2.11a.34.34 0 0 0-.35 0l-3.62 2.078a.35.35 0 0 0-.19.32c0 .128.063.256.158.32" data-sentry-element="path" data-sentry-source-file="Logo.tsx"/><path d="m14.71 26.778-8.257-4.827v-9.048a.35.35 0 0 0-.19-.32l-3.59-2.078a.34.34 0 0 0-.349 0c-.095.064-.19.192-.19.32v13.46c0 .128.063.255.19.32l12.036 6.969c.064.032.127.032.19.032.064 0 .128-.032.191-.064.095-.064.19-.192.19-.32v-4.156a.48.48 0 0 0-.221-.288" data-sentry-element="path" data-sentry-source-file="Logo.tsx"/><path d="M19.822 22.015a.35.35 0 0 0-.19-.32l-6.32-3.645.031-7.385a.35.35 0 0 0-.19-.32.34.34 0 0 0-.35 0l-3.588 2.078a.35.35 0 0 0-.19.32v7.481c0 .128.063.256.19.32l6.574 3.836a.4.4 0 0 0 .38-.032l3.462-1.982a.44.44 0 0 0 .19-.351M29.637 8.267 16.172.435a.34.34 0 0 0-.349 0l-3.588 2.078c-.096.064-.191.192-.191.32 0 .127.063.255.19.32l13.338 7.736-.031 15.474c0 .127.063.255.19.32a.45.45 0 0 0 .19.063c.064 0 .128 0 .16-.032l3.588-2.078a.35.35 0 0 0 .19-.32V8.651c-.031-.192-.095-.32-.222-.384" data-sentry-element="path" data-sentry-source-file="Logo.tsx"/></svg>
